!!!COM: Gonzaga, Francisca
!!!CDT: 1847/10/17-1935/02/28
!!!OTL: Tupã
**kern	**kern	**dynam
*part1	*part1	*part1
*staff2	*staff1	*
*>[A,B,A]	*>[A,B,A]	*>[A,B,A]
*>A	*>A	*>A
*clefF4	*clefG2	*
*k[f#]	*k[f#]	*
*M2/4	*M2/4	*
=1	=1	=1
*G:	*G:	*
2r	16r	.
!	!LO:TX:b:i:t=tranquilo	!
.	(16dLL	.
.	16e	.
.	16f#JJ)	.
.	(16gLL	.
.	16a	.
.	16b	.
.	16ccJJ)	.
=2||	=2||	=2||
16C#XKL	2ee	.
8E 8G 8A	.	.
16EJk 16G 16A	.	.
16C#KL	.	.
8E 8G 8A	.	.
16C#Jk	.	.
=3	=3	=3
16CKL	16r	.
8D 8F# 8A	(16dLL	.
.	16e	.
16DJk 16F# 16A	16f#JJ)	.
16CKL	(16gLL	.
8D 8F# 8A	16a	.
.	16b	.
16CJk	16ccJJ)	.
=4	=4	=4
16BBKL	[2dd	.
8D 8G 8B	.	.
16DJk 16G 16B	.	.
16BBKL	.	.
8D 8G 8B	.	.
16BBJk	.	.
=5	=5	=5
(16GGLL	4dd]	.
16BB	.	.
16D	.	.
16GJJ)	.	.
(16cLL	4r	.
16B	.	.
16G	.	.
16DJJ)	.	.
!!linebreak:original
=6	=6	=6
16C#XKL	8.r	.
8E 8G 8A	.	.
16EJk 16G 16A	16c#X 16e 16b	.
8C#L	8r	.
8EJ 8G 8A	8c# 8e 8a	.
=7	=7	=7
16CKL	16r	.
8D 8F# 8A	16cLL	.
.	16d	.
16DJk 16F# 16A	16f#JJ	.
16CKL	16bLL	.
8D 8F# 8A	16a	.
.	16e	.
16CJk	16f#JJ	.
=8	=8	=8
16BBKL	2d	.
8D 8G 8B	.	.
16DJk 16G 16B	.	.
8BBL	.	.
8DJ 8G 8B	.	.
=9	=9	=9
4GG	16r	.
.	(16dLL	.
.	16e	.
.	16f#JJ)	.
4r	(16gLL	.
.	16a	.
.	16b	.
.	16ccJJ)	.
=10	=10	=10
16C#XKL	2ee	.
8E 8G 8A	.	.
16EJk 16G 16A	.	.
16C#KL	.	.
8E 8G 8A	.	.
16C#Jk	.	.
=11	=11	=11
16CKL	16r	.
8D 8F# 8A	(16dLL	.
.	16e	.
16DJk 16F# 16A	16f#JJ)	.
16CKL	(16gLL	.
8D 8F# 8A	16a	.
.	16b	.
16CJk	16ccJJ)	.
!!linebreak:original
=12	=12	=12
16BBKL	[2dd	.
8D 8G 8B	.	.
16DJk 16G 16B	.	.
8BBL	.	.
8DJ 8G 8B	.	.
=13	=13	=13
8C 8E 8A	16ddLL]	.
.	16e	.
8r	16a	.
.	16ccJJ	.
8r	(16dd#XLL	.
.	16ff#	.
8C#X	16bb	.
.	16aaJJ)	.
=14	=14	=14
16DKL	2gg	.
8G 8B 8d	.	.
16GJk 16B 16d	.	.
8DL	.	.
8GJ 8B 8d	.	.
=15	=15	=15
16F#KL	16r	.
8c 8d	16aLL	.
.	16b	.
16cJk 16d	16ccJJ	.
8F#L	(16ddLL	.
.	16bb	.
8cJ 8d	16cc	.
.	16aaJJ)	.
=16	=16	=16
16GKL	[2b [2gg	.
8B 8d 8g	.	.
16BJk 16d 16g	.	.
8DL	.	.
8GJ 8B 8d	.	.
=17	=17	=17
*C:	*C:	*
8GG	(16bLL] 16gg]	.
.	16g	.
8r	16aa	.
.	16aa-XJJ)	.
4D 4Fn 4G 4B	(16ggLL	.
.	16ffn	.
.	16a	.
.	16bJJ)	.
!!linebreak:original
=18||	=18||	=18||
*k[]	*k[]	*
16CKL	8g	.
8E 8G	.	.
.	16r	.
16EJk 16G	16c 16e 16g	.
8GGL	8r	.
8EJ 8G	8c 8e 8g	.
=19	=19	=19
16DKL	16r	.
8F 8G 8B	(16fLL	.
.	16g	.
16FJk 16G 16B	16aJJ)	.
8GGL	(16ccLL	.
.	16b	.
8FJ 8G 8B	16f	.
.	16gJJ)	.
=20	=20	=20
16CKL	8e	.
8E 8G	.	.
.	16r	.
16EJk 16G	16c 16e 16g	.
8GGL	8r	.
8EJ 8G	8c 8e 8g	.
=21	=21	=21
16FKL	16r	.
8A 8d	(16fLL	.
.	16g	.
16AJk 16d	16aJJ)	.
8F#XL	16bLL	.
.	16cc	.
8cJ 8d	16dd	.
.	16dd#XJJ	.
=22	=22	=22
16GKL	8ee	.
8c 8e	.	.
.	16r	.
16cJk 16e	16g 16cc 16ee 16gg	.
8EL	8r	.
8GJ 8c 8e	8g 8cc 8ee 8gg	.
=23	=23	=23
16DKL	16r	.
8F 8G 8B	(16gg#XLL	.
.	16bb	.
16FJk 16G 16B	16aaJJ)	.
8GGL	(16ggnLL	.
.	16ff	.
8FJ 8G 8B	16dd	.
.	16dd#XJJ)	.
!!linebreak:original
=24	=24	=24
16CKL	8.eeL	.
8E 8G 8c	.	.
16EJk 16G 16c	16ccJk	.
8GGL	4g	.
8EJ 8G 8c	.	.
=25	=25	=25
16GKL	16r	.
8B 8f	16gLL	.
.	16aa	.
16BJk 16f	16aa-XJJ	.
16FKL	(16ggLL	.
8G 8B 8d	16ff	.
.	16a	.
16FJk	16bJJ)	.
=26	=26	=26
16EKL	8g	.
8G 8c	.	.
.	16r	.
16GJk	16c 16e 16g	.
8GGL	8r	.
8EJ 8G	8c 8e 8g	.
=27	=27	=27
16DKL	16r	.
8F 8G 8B	(16fLL	.
.	16g	.
16FJk 16G 16B	16aJJ)	.
8GGL	(16ccLL	.
.	16b	.
8FJ 8G 8B	16f	.
.	16gJJ)	.
=28	=28	=28
16CKL	8e	.
8E 8G	.	.
.	16r	.
16EJk 16G	16c 16e 16g	.
8GGL	8r	.
8EJ 8G	8c 8e 8g	.
=29	=29	=29
16FKL	16r	.
8A 8d	(16fLL	.
.	16g	.
16AJk 16d	16aJJ)	.
8F#XL	(16bLL	.
.	16cc	.
8cJ 8d	16dd	.
.	16dd#XJJ)	.
!!pagebreak:original
=30	=30	=30
16GKL	8r	.
8c 8e	.	.
.	16r	.
16cJk 16e	16g 16cc 16ee 16gg	.
8EL	8r	.
8GJ 8c 8e	8g 8cc 8ee 8gg	.
=31	=31	=31
16DKL	16r	.
8F 8G 8B	(16gg#XLL	.
.	16bb	.
16FJk 16G 16B	16aaJJ)	.
8GGL	(16ggnLL	.
.	16ff	.
8FJ 8G 8B	16a	.
.	16bJJ)	.
=32	=32	=32
16EKL	8ccL	.
8G 8c	.	.
.	8ccJ 8ee 8gg	.
16GJk 16c	.	.
8FL	8r	.
8GJ 8B	8b 8ff 8gg	.
=33	=33	=33
8E	16ccLL	.
.	(16d	.
*G:	*G:	*
8r	16e	.
.	16f#XJJ)	.
4r	(16gLL	.
.	16a	.
.	16b	.
.	16ccJJ)	.
=34||	=34||	=34||
*k[f#]	*k[f#]	*
16C#XKL	2ee	.
8E 8G 8A	.	.
16EJk 16G 16A	.	.
16C#KL	.	.
8E 8G 8A	.	.
16C#Jk	.	.
=35	=35	=35
16CKL	16r	.
8D 8F# 8A	(16dLL	.
.	16e	.
16DJk 16F# 16A	16f#JJ)	.
16CKL	(16gLL	.
8D 8F# 8A	16a	.
.	16b	.
16CJk	16ccJJ)	.
!!linebreak:original
=36	=36	=36
16BBKL	[2dd	.
8D 8G 8B	.	.
16DJk 16G 16B	.	.
16BBKL	.	.
8D 8G 8B	.	.
16BBJk	.	.
=37	=37	=37
(16GGLL	4dd]	.
16BB	.	.
16D	.	.
16GJJ)	.	.
(16cLL	4r	.
16B	.	.
16G	.	.
16DJJ)	.	.
=38	=38	=38
16C#XKL	8.r	.
8E 8G 8A	.	.
16EJk 16G 16A	16c#X 16e 16b	.
8C#L	8r	.
8EJ 8G 8A	8c# 8e 8a	.
=39	=39	=39
16CKL	16r	.
8D 8F# 8A	16cLL	.
.	16d	.
16DJk 16F# 16A	16f#JJ	.
16CKL	16bLL	.
8D 8F# 8A	16a	.
.	16e	.
16CJk	16f#JJ	.
=40	=40	=40
16BBKL	2d	.
8D 8G 8B	.	.
16DJk 16G 16B	.	.
8BBL	.	.
8DJ 8G 8B	.	.
=41	=41	=41
4GG	16r	.
.	(16dLL	.
.	16e	.
.	16f#JJ)	.
4r	(16gLL	.
.	16a	.
.	16b	.
.	16ccJJ)	.
!!linebreak:original
=42	=42	=42
16C#XKL	2ee	.
8E 8G 8A	.	.
16EJk 16G 16A	.	.
16C#KL	.	.
8E 8G 8A	.	.
16C#Jk	.	.
=43	=43	=43
16CKL	16r	.
8D 8F# 8A	(16dLL	.
.	16e	.
16DJk 16F# 16A	16f#JJ)	.
16CKL	(16gLL	.
8D 8F# 8A	16a	.
.	16b	.
16CJk	16ccJJ)	.
=44	=44	=44
16BBKL	[2dd	.
8D 8G 8B	.	.
16DJk 16G 16B	.	.
8BBL	.	.
8DJ 8G 8B	.	.
=45	=45	=45
8C 8E 8A	16ddLL]	.
.	16e	.
8r	16a	.
.	16ccJJ	.
8r	(16dd#XLL	.
.	16ff#	.
8C#X	16bb	.
.	16aaJJ)	.
=46	=46	=46
16DKL	2gg	.
8G 8B 8d	.	.
16GJk 16B 16d	.	.
8DL	.	.
8GJ 8B 8d	.	.
=47	=47	=47
16F#KL	16r	.
8c 8d	16aLL	.
.	16b	.
16cJk 16d	16ccJJ	.
8F#L	(16ddLL	.
.	16bb	.
8cJ 8d	16cc	.
.	16aaJJ)	.
!!linebreak:original
=48	=48	=48
16GKL	[2b [2gg	.
8B 8d 8g	.	.
16BJk 16d 16g	.	.
8DL	.	.
8GJ 8B 8d	.	.
=49	=49	=49
!	!LO:TX:a:t=Fine	!
8.GGL	8.bL] 8.gg]	.
*>B	*>B	*>B
16GG^Jk	16gg^Jk	.
*C:	*C:	*
8AA^L	8g^L 8gg	.
8BB^J	8g^J 8gg	.
=50||	=50||	=50||
*k[]	*k[]	*
!	!LO:TX:b:i:t=enérgico	!
16CKL	8.cL 8.e 8.g	f
8E 8G	.	.
16EJk 16G	(16eJk	.
8BBL	16aLL	.
.	16g	.
8FJ 8G	16d	.
.	16fJJ)	.
=51	=51	=51
16CKL	8.cL 8.e	.
8E 8G	.	.
16GGJk	16gJk	.
8AAL	8f#XL	.
8BBJ	8fnJ	.
=52	=52	=52
16CKL	8.cL 8.e	.
8E 8G	.	.
16EJk 16G	(16eJk	.
8GGL	16aLL	.
.	16g	.
8EJ 8G	16e	.
.	16gJJ)	.
=53	=53	=53
16FFKL	8.dL 8.f	.
8F 8A 8d	.	.
16FJk 16A 16d	16fJk	.
8FL 8G#X 8d	8fL 8g#X 8ee	.
8FJ 8G# 8d	8fJ 8g# 8ee	.
!!linebreak:original
=54	=54	=54
16FKL 16G#X 16B 16d	8.fL 8.g#X 8.dd	.
8F 8G# 8B 8d	.	.
16FJk 16G# 16B 16d	16fJk	.
8FL 8G# 8B 8d	8fL 8g# 8ee	.
8FJ 8G# 8B 8d	8fJ 8g# 8dd	.
=55	=55	=55
16GGKL	8.fL 8.g 8.cc	.
8F 8G 8B	.	.
16FJk 16G 16B	16fJk 16g 16b	.
(16GGLL	4r	.
16D	.	.
16F	.	.
16GJJ)	.	.
=56	=56	=56
4c	8r	.
.	16fLL 16g 16cc	.
.	16fJJ 16g 16cc	.
4D	16fLL 16g 16b	.
.	16B	.
.	16d	.
.	16fJJ	.
=57	=57	=57
16CKL	16cKL 16e 16a	.
8E 8G	8g	.
16EJk 16G	16gJk	.
8AAL	8f#XL	.
8BBJ	8fnJ	.
=58	=58	=58
16CKL	8.cL 8.e	.
8E 8G	.	.
16EJk 16G	(16eJk	.
8GGL	16aLL	.
.	16g	.
8FJ 8G	16d	.
.	16fJJ)	.
=59	=59	=59
16CKL	8.cL 8.e	.
8E 8G	.	.
16EJk 16G	16gJk	.
8AAL	8f#XL	.
8BBJ	8fnJ	.
!!linebreak:original
=60	=60	=60
16CKL	8.cL 8.e	.
8E 8G	.	.
16EJk 16G	(16eJk	.
8GGL	16aLL	.
.	16g	.
8CJ 8E 8G	16e	.
.	16gJJ)	.
=61	=61	=61
4FF 4D 4F	(16fLL	.
.	16A	.
.	16d	.
.	16fJJ)	.
4r	(16aLL	.
.	16dd	.
.	16ff	.
.	16aaJJ)	.
=62	=62	=62
16FKL	4ddd	.
8A 8d	.	.
16AJk 16d	.	.
8F#XL	4ccc	.
8cJ 8d	.	.
=63	=63	=63
16GKL	4gg	.
8c 8e	.	.
16cJk 16e	.	.
8EL	16r	.
.	16eeLL	.
8GJ 8c 8e	16cc	.
.	16aJJ	.
=64	=64	=64
16DKL	8.fL 8.b	.
8F 8G 8B	.	.
16FJk 16G 16B	16eeJk	.
8GGL	8fL 8dd	.
8FJ 8G 8B	8gJ	.
=65	=65	=65
16CKL	4e 4cc	.
8E 8G 8c	.	.
16EJk 16G 16c	.	.
8C	4r	.
8r	.	.
==	==	==
*-	*-	*-
!!!system-decoration: {(s1,s2)}
!!!AGN: Tango
!!!EED: Florian Moldaschl
!!!END: 2025/12/29
!!!ENC: Florian Moldaschl
!!!EEV: 2026/01/14
!!!title: @{OPR}, @{SCT} №@{ONM}